packages/ckeditor5-icons/theme/icons/pin.svg

<svg viewBox="0 0 20 20" xmlns="http://www.w3.org/2000/svg">
<path d="M3.27273 17.8182L2 18L2.18182 16.7273L6.54545 12.3636L7.63636 13.4545L3.27273 17.8182Z"/>
<path d="M18 7.81818C17.1028 8.71543 16.003 9.10216 15.1534 8.54972L12.1818 12.1818C13.3868 13.3868 13.0232 14.9768 11.8182 16.1818L3.81818 8.18182C5.02317 6.97683 6.6132 6.6132 7.81818 7.81818L11.4496 4.84588C10.8979 3.99643 11.2849 2.89696 12.1818 2L18 7.81818Z"/>
</svg>

<svg xmlns="http://www.w3.org/2000/svg" viewBox="0 0 20 20"><path d="M3.273 17.818 2 18l.182-1.273 4.363-4.363 1.091 1.09zM18 7.818c-.897.897-1.997 1.284-2.847.732l-2.971 3.632c1.205 1.205.841 2.795-.364 4l-8-8c1.205-1.205 2.795-1.569 4-.364l3.632-2.972c-.552-.85-.165-1.949.732-2.846z"/></svg>
